source/assets/images/icons/sector-education.svg

<?xml version="1.0" encoding="utf-8"?>
<!-- Generated by IcoMoon.io -->
<!DOCTYPE svg PUBLIC "-//W3C//DTD SVG 1.1//EN" "http://www.w3.org/Graphics/SVG/1.1/DTD/svg11.dtd">
<svg version="1.1" xmlns="http://www.w3.org/2000/svg" xmlns:xlink="http://www.w3.org/1999/xlink" width="32" height="32" viewBox="0 0 32 32">
<path fill="#444444" d="M30.424 9.616l-3.305 3.296-8.29-8.261 3.308-3.276c0.455-0.477 1.115-0.756 1.791-0.756 0.678 0 1.338 0.279 1.814 0.756l4.682 4.648c0.458 0.474 0.738 1.129 0.738 1.805s-0.28 1.331-0.738 1.787v0zM18.19 9.298c-0.119 0-0.238 0.039-0.339 0.136l-10.8 10.763c-0.098 0.101-0.14 0.222-0.14 0.341 0 0.255 0.181 0.436 0.44 0.436 0.119 0 0.238-0.041 0.339-0.139l10.797-10.763c0.101-0.098 0.14-0.219 0.14-0.338 0-0.258-0.175-0.436-0.437-0.436v0zM10.019 26.355l-4.682-4.666-1.811 1.808v2.122h2.549v2.543h2.133l1.811-1.808zM25.84 14.184l-16.576 16.52h-8.29v-8.261l16.579-16.52 8.287 8.261z"></path>
</svg>

<svg xmlns="http://www.w3.org/2000/svg" width="32" height="32" viewBox="0 0 32 32"><path fill="#444" d="M30.424 9.616l-3.305 3.296-8.29-8.26 3.306-3.277C22.59.898 23.25.62 23.926.62c.68 0 1.34.277 1.815.754l4.683 4.648c.458.474.738 1.13.738 1.805s-.28 1.33-.737 1.787zM18.19 9.298c-.12 0-.238.04-.34.136L7.05 20.197c-.097.1-.14.222-.14.34 0 .256.182.437.44.437.12 0 .24-.04.34-.14l10.797-10.762c.1-.098.14-.22.14-.338 0-.258-.175-.436-.437-.436zm-8.17 17.057L5.336 21.69l-1.81 1.807v2.122h2.548v2.54h2.133l1.81-1.807zm15.82-12.17L9.264 30.705H.974V22.44l16.58-16.52 8.286 8.26z"/></svg>
